korla/status/symbolic/computer-fail-symbolic.svg

<svg style="clip-rule:evenodd;fill-rule:evenodd;stroke-linejoin:round;stroke-miterlimit:2" version="1.1" viewBox="0 0 16 16" xmlns="http://www.w3.org/2000/svg">
 <path d="m2 0c-2 0-2 2-2 2v9s0 2 2 2h12s2 0 2-2v-9s0-2-2-2h-12zm-1.15 0.797h14.3v10.922h-14.3v-10.922zm2.15 12.972v2.231h10v-2.231h-10z" style="fill-rule:nonzero;fill:rgb(223,223,223)"/>
 <path d="m5 3v2h1v-2h-1zm5 0v2h1v-2h-1zm-5 4v1h6v-1h-6zm6 1v1h1v-1h-1zm-6 0h-1v1h1v-1z" style="fill-rule:nonzero;fill:rgb(223,223,223)"/>
</svg>

<svg xmlns="http://www.w3.org/2000/svg" width="16" height="16" version="1.1">
 <path style="fill:#dfdfdf" d="M 2,0 C 0,0 0,2 0,2 V 11 C 0,11 0,13 2,13 H 14 C 14,13 16,13 16,11 V 2 C 16,2 16,0 14,0 Z M 2,2 H 14 V 10 H 2 Z M 3,15 V 16 H 13 V 15 C 13,14 12,14 12,14 H 4 C 4,14 3,14 3,15 Z"/>
 <path style="fill:#dfdfdf" d="M 5,3 V 5 H 6 V 3 Z M 10,3 V 5 H 11 V 3 Z M 5,7 V 8 H 11 V 7 Z M 11,8 V 9 H 12 V 8 Z M 5,8 H 4 V 9 H 5 Z"/>
</svg>
